Yaru++/status/16/network-vpn-acquiring.svg

<svg height="16" width="16" xmlns="http://www.w3.org/2000/svg"><g fill="#808080"><path d="m11.494 6c.829 0 1.496.667 1.496 1.496v.016c0 .829-.667 1.496-1.496 1.496h-.016a1.493 1.493 0 0 1 -1.496-1.496v-.016c0-.829.667-1.496 1.496-1.496zm-4 0c.829 0 1.496.667 1.496 1.496v.016c0 .829-.667 1.496-1.496 1.496h-.016a1.493 1.493 0 0 1 -1.496-1.496v-.016c0-.829.667-1.496 1.496-1.496zm-4 0c.829 0 1.496.667 1.496 1.496v.016c0 .829-.667 1.496-1.496 1.496h-.016a1.493 1.493 0 0 1 -1.496-1.496v-.016c0-.829.667-1.496 1.496-1.496z" display="block"/><path d="m2.713 2c-1.058-.013-1.768.224-2.133.662-.383.456-.58 1.204-.58 2.244v6.188c0 1.04.197 1.788.58 2.244.365.438 1.075.662 2.133.662h10.574c1.058 0 1.77-.224 2.135-.662.383-.456.578-1.204.578-2.244v-6.188c0-1.04-.195-1.788-.578-2.244-.365-.438-1.077-.662-2.135-.662zm-1.713 3h1v.508a2.483 2.483 0 0 1 1.5-.508h9.5c1.099 0 2 .901 2 2v4h-1v-3.5a2.492 2.492 0 0 1 -2 2.45v1.05h-1v-1h-4v1h-1v-1h-1.783c-.55.609-1.337 1-2.217 1h-1v-3.5zm13 2.5v-.5c0-.3-.134-.56-.34-.742.21.367.34.787.34 1.242zm-12 1.992v.508c.254 0 .494-.052.717-.137a2.474 2.474 0 0 1 -.717-.37z" opacity=".5"/></g></svg>

<svg height="16" width="16" xmlns="http://www.w3.org/2000/svg">
    <g fill="gray">
        <path d="M11.494 6c.829 0 1.496.667 1.496 1.496v.016c0 .829-.667 1.496-1.496 1.496h-.016a1.493 1.493 0 0 1-1.496-1.496v-.016c0-.829.667-1.496 1.496-1.496zm-4 0c.829 0 1.496.667 1.496 1.496v.016c0 .829-.667 1.496-1.496 1.496h-.016a1.493 1.493 0 0 1-1.496-1.496v-.016C5.982 6.667 6.649 6 7.478 6zm-4 0c.829 0 1.496.667 1.496 1.496v.016c0 .829-.667 1.496-1.496 1.496h-.016a1.493 1.493 0 0 1-1.496-1.496v-.016C1.982 6.667 2.649 6 3.478 6z" style="isolation:auto;mix-blend-mode:normal;marker:none" color="#000" display="block" overflow="visible"/>
        <path d="M2.713 2C1.655 1.987.945 2.224.58 2.662.197 3.118 0 3.866 0 4.906v6.188c0 1.04.197 1.788.58 2.244.365.438 1.075.662 2.133.662h10.574c1.058 0 1.77-.224 2.135-.662.383-.456.578-1.204.578-2.244V4.906c0-1.04-.195-1.788-.578-2.244C15.057 2.224 14.345 2 13.287 2zM1 5h1v.508A2.483 2.483 0 0 1 3.5 5H13c1.099 0 2 .901 2 2v4h-1V7.5a2.492 2.492 0 0 1-2 2.45V11h-1v-1H7v1H6v-1H4.217c-.55.609-1.337 1-2.217 1H1V7.5zm13 2.5V7c0-.3-.134-.56-.34-.742.21.367.34.787.34 1.242zM2 9.492V10c.254 0 .494-.052.717-.137A2.474 2.474 0 0 1 2 9.493z" style="line-height:125%;-inkscape-font-specification:Ubuntu;text-align:center" font-weight="400" font-size="15" font-family="Ubuntu" letter-spacing="0" word-spacing="0" text-anchor="middle" opacity=".5"/>
    </g>
</svg>
